X: 31
T:Swallowtail jig
M:6/8
L:1/8
R:Jig
K:D maj
|:F|GEE BEE|GEE BAG|FDD ADD|dcd AGF  |
|GEE BEE|GEEB2c|dcd AGF|GEEE2:|
|:B|Bcd e2f|e2f edB|Bcde2f|edcd3|
|Bcd e2f|e2f edB|dcd AGF|GEEE2:|
